X:1
T:Betty Anne
M:2/2
L:1/4
K:F
 F2 F c| B/2B/2 G/2G/2 _E2| F2 F B| c3 z| c2 c c| B/2B/2 G/2G/2 _E3/2 E/2|\
 F/2F/2 B B G| F3 F| F3/2 F/2 F c/2c/2| B G _E3/2 E/2| F F/2F/2 G B|\
 c3 c| c c/2c/2 c c| B/2B/2 G/2G/2 _E3/2 E/2| F B B G| F3 z|
